symbolic/32x32/apps/applications-education-mathematics.svg

<svg xmlns="http://www.w3.org/2000/svg" width="32" height="32" version="1">
 <path fill="#395d6d" d="m27 28.5v-25c0-0.831-0.669-1.5-1.5-1.5h-19c-0.831 0-1.5 0.669-1.5 1.5v25c0 0.831 0.669 1.5 1.5 1.5h19c0.831 0 1.5-0.669 1.5-1.5z"/>
 <path fill="#fff" opacity=".1" d="m6.5 2c-0.831 0-1.5 0.669-1.5 1.5v1c0-0.831 0.669-1.5 1.5-1.5h19c0.831 0 1.5 0.669 1.5 1.5v-1c0-0.831-0.669-1.5-1.5-1.5z"/>
 <path style="opacity:0.2" d="M 13.53125,11 13.4375,11.40625 11.945312,19.429688 10.888672,16.089844 10.859375,16 10.529297,15 8,15 8,16 9.8125,16 11.710938,22 12.45,22 14.34375,12 21,12 21,11 Z m 2.40625,3 2.5,4 -2.5,4 1,0 2,-3.1875 2,3.1875 1,0 -2.5,-4 2.5,-4 -1,0 -2,3.1875 -2,-3.1875 z"/>
 <path style="fill:#ff6868" d="M 13.53125,10 13.4375,10.40625 11.945312,18.429688 10.888672,15.089844 10.859375,15 10.529297,14 8,14 8,15 9.8125,15 11.710938,21 12.45,21 14.34375,11 21,11 21,10 Z m 2.40625,3 2.5,4 -2.5,4 1,0 2,-3.1875 2,3.1875 1,0 -2.5,-4 2.5,-4 -1,0 -2,3.1875 -2,-3.1875 z"/>
 <path opacity=".2" d="m5 28.5v1c0 0.831 0.669 1.5 1.5 1.5h19c0.831 0 1.5-0.669 1.5-1.5v-1c0 0.831-0.669 1.5-1.5 1.5h-19c-0.831 0-1.5-0.669-1.5-1.5z"/>
</svg>

<svg xmlns="http://www.w3.org/2000/svg" width="32" height="32" version="1"><path fill="#395d6d" d="M27 28.5v-25c0-.831-.669-1.5-1.5-1.5h-19C5.669 2 5 2.669 5 3.5v25c0 .831.669 1.5 1.5 1.5h19c.831 0 1.5-.669 1.5-1.5z"/><path fill="#fff" opacity=".1" d="M6.5 2C5.669 2 5 2.669 5 3.5v1C5 3.669 5.669 3 6.5 3h19c.831 0 1.5.669 1.5 1.5v-1c0-.831-.669-1.5-1.5-1.5z"/><path style="opacity:.2" d="m13.531 11-.094.406-1.492 8.024-1.056-3.34-.03-.09-.33-1H8v1h1.813l1.898 6h.739l1.894-10H21v-1zm2.406 3 2.5 4-2.5 4h1l2-3.188 2 3.188h1l-2.5-4 2.5-4h-1l-2 3.188-2-3.188z"/><path style="fill:#ff6868" d="m13.531 10-.094.406-1.492 8.024-1.056-3.34-.03-.09-.33-1H8v1h1.813l1.898 6h.739l1.894-10H21v-1zm2.406 3 2.5 4-2.5 4h1l2-3.188 2 3.188h1l-2.5-4 2.5-4h-1l-2 3.188-2-3.188z"/><path opacity=".2" d="M5 28.5v1c0 .831.669 1.5 1.5 1.5h19c.831 0 1.5-.669 1.5-1.5v-1c0 .831-.669 1.5-1.5 1.5h-19c-.831 0-1.5-.669-1.5-1.5z"/></svg>
